fa/svgs/brands/vk.svg

<svg xmlns="http://www.w3.org/2000/svg" viewBox="0 0 448 512"><!--! Font Awesome Free 6.1.1 by @fontawesome - https://fontawesome.com License - https://fontawesome.com/license/free (Icons: CC BY 4.0, Fonts: SIL OFL 1.1, Code: MIT License) Copyright 2022 Fonticons, Inc.--><path d="M31.49 63.49C0 94.982 0 145.672 0 247.04v17.92c0 101.369 0 152.059 31.49 183.549C62.982 480 113.672 480 215.04 480h17.92c101.369 0 152.059 0 183.549-31.491C448 417.019 448 366.329 448 264.96v-17.92c0-101.369 0-152.059-31.491-183.55C385.019 32 334.329 32 232.96 32h-17.92C113.671 32 62.981 32 31.49 63.49ZM75.6 168.268h51.147c1.68 85.493 39.386 121.706 69.253 129.173V168.267h48.16V242c29.493-3.173 60.48-36.773 70.933-73.733h48.16a142.258 142.258 0 0 1-65.52 92.96 147.348 147.348 0 0 1 76.72 93.52H321.44a92.154 92.154 0 0 0-77.28-66.64v66.64h-5.787c-102.106 0-160.346-70-162.773-186.48Z"/></svg>

<svg xmlns="http://www.w3.org/2000/svg" viewBox="0 0 448 512"><!--! Font Awesome Free 6.2.1 by @fontawesome - https://fontawesome.com License - https://fontawesome.com/license/free (Icons: CC BY 4.0, Fonts: SIL OFL 1.1, Code: MIT License) Copyright 2022 Fonticons, Inc. --><path d="M31.4907 63.4907C0 94.9813 0 145.671 0 247.04V264.96C0 366.329 0 417.019 31.4907 448.509C62.9813 480 113.671 480 215.04 480H232.96C334.329 480 385.019 480 416.509 448.509C448 417.019 448 366.329 448 264.96V247.04C448 145.671 448 94.9813 416.509 63.4907C385.019 32 334.329 32 232.96 32H215.04C113.671 32 62.9813 32 31.4907 63.4907ZM75.6 168.267H126.747C128.427 253.76 166.133 289.973 196 297.44V168.267H244.16V242C273.653 238.827 304.64 205.227 315.093 168.267H363.253C359.313 187.435 351.46 205.583 340.186 221.579C328.913 237.574 314.461 251.071 297.733 261.227C316.41 270.499 332.907 283.63 346.132 299.751C359.357 315.873 369.01 334.618 374.453 354.747H321.44C316.555 337.262 306.614 321.61 292.865 309.754C279.117 297.899 262.173 290.368 244.16 288.107V354.747H238.373C136.267 354.747 78.0267 284.747 75.6 168.267Z"/></svg>
